teeny/outline/scan.svg

<svg width="15" height="15" viewBox="0 0 15 15" fill="none" xmlns="http://www.w3.org/2000/svg">
<path d="M0.5 5V2.5C0.5 1.39543 1.39543 0.5 2.5 0.5H5M10 0.5H12.5C13.6046 0.5 14.5 1.39543 14.5 2.5V5M0.5 10V12.5C0.5 13.6046 1.39543 14.5 2.5 14.5H5M14.5 10V12.5C14.5 13.6046 13.6046 14.5 12.5 14.5H10M2 7.5H13" stroke="black"/>
</svg>

<svg viewBox="0 0 15 15" xmlns="http://www.w3.org/2000/svg"><path fill="none" stroke="#000" d="M.5 5V2.5c0-1.11.89-2 2-2H5m5 0h2.5c1.1 0 2 .89 2 2V5m-14 5v2.5c0 1.1.89 2 2 2H5m9.5-4.5v2.5c0 1.1-.9 2-2 2H10m-8-7h11"/></svg>
